svg/私密文件夹-列表.svg

<svg width="24" height="24" viewBox="0 0 24 24" fill="none" xmlns="http://www.w3.org/2000/svg"><rect x="-156.948" y="-115.81" width="334.406" height="150.877" stroke="#F97316"/><path d="M2.5 4C2.5 3.44771 2.94771 3 3.5 3H9.5L12 6H20.5C21.0523 6 21.5 6.4477 21.5 7V20C21.5 20.5523 21.0523 21 20.5 21H3.5C2.94771 21 2.5 20.5523 2.5 20V4Z" fill="#4A4A4A" stroke="#4A4A4A" stroke-width="1.5" stroke-linejoin="round"/><path d="M15.5 13H8.5V17H15.5V13Z" fill="white" stroke="white" stroke-width="1.5" stroke-linecap="round" stroke-linejoin="round"/><path d="M13.5 13V11.5C13.5 10.6715 12.8285 10 12 10C11.1715 10 10.5 10.6715 10.5 11.5V13" stroke="white" stroke-width="1.5" stroke-linecap="round" stroke-linejoin="round"/></svg>

<svg fill="none" viewBox="0 0 24 24"><path fill="#4A4A4A" stroke="#4A4A4A" stroke-linejoin="round" stroke-width="1.5" d="M2.5 4a1 1 0 0 1 1-1h6L12 6h8.5a1 1 0 0 1 1 1v13a1 1 0 0 1-1 1h-17a1 1 0 0 1-1-1z"/><path fill="white" stroke="white" stroke-linecap="round" stroke-linejoin="round" stroke-width="1.5" d="M15.5 13h-7v4h7z"/><path stroke="white" stroke-linecap="round" stroke-linejoin="round" stroke-width="1.5" d="M13.5 13v-1.5a1.5 1.5 0 1 0-3 0V13"/></svg>
